X:1
T:sooranbushi
F:http://ja.wikipedia.org/wiki/ABC\"i
M:2/4
L:1/8
K:F
C2 DF | A2 GF | A2 GF | G2 FC | D2 FC | D2 D2 | z2 z2 ||
zG AA | GA AA | GA AA | GF D2 | zA, CA, | CD GF | zG AF |
DC FD | Dz CC | DF A2 | A3 c | G F2 C | D2 D2 | D2 z2 |]
